src/images/crypto-icon-svg/sberbank.svg

<svg xmlns="http://www.w3.org/2000/svg" width="32" height="32" viewBox="0 0 32 32">
  <g fill="none" fill-rule="evenodd">
    <circle cx="16" cy="16" r="16" fill="#48B254" fill-rule="nonzero"/>
    <path fill="#FFF" d="M22.6809817,7.36781609 L23.625767,8.22605364 L11.694479,15.0383142 L5.91779207,11.7126437 L6.45766935,10.6398467 L11.694479,13.6168582 L22.6809817,7.36781609 Z M20.2785278,6 L21.5472394,6.64367816 L11.694479,12.2758621 L7.10552209,9.6743295 L7.88834415,8.73563218 L11.694479,10.908046 L20.2785278,6 Z M24.4625768,9.11111111 L25.1644172,10.0498084 L11.694479,17.7471264 L5.18895773,14.045977 L5.48589024,12.8659004 L11.694479,16.4061303 L24.4625768,9.11111111 Z M26.406135,12.5708812 C26.801865,13.6796169 27,14.8414559 27,16.0574713 C27,17.2734866 26.801865,18.4535632 26.406135,19.5977011 L26.1361963,20.3218391 C25.5825507,21.6212507 24.7856152,22.8044005 23.7877302,23.8084291 C22.7807896,24.7975389 21.5886156,25.5811258 20.2785278,26.1149425 C18.8932027,26.7049808 17.4625279,27 15.9865034,27 C14.492663,27 13.0619882,26.7049808 11.694479,26.1149425 C10.4165895,25.5785441 9.25585331,24.8098851 8.21227052,23.8084291 C7.18650368,22.789272 6.40368162,21.627433 5.86380434,20.3218391 C5.29315436,18.9716486 4.99948329,17.521873 5.00000068,16.0574713 L5.00000068,15.3333333 L11.694479,19.1149425 L25.81227,11.0689655 L26.406135,12.5708812 Z"/>
  </g>
</svg>

<svg xmlns="http://www.w3.org/2000/svg" width="32" height="32"><g fill="none" fill-rule="evenodd"><circle cx="16" cy="16" r="16" fill="#48B254" fill-rule="nonzero"/><path fill="#FFF" d="M22.681 7.368l.945.858-11.932 6.812-5.776-3.325.54-1.073 5.236 2.977 10.987-6.25zM20.279 6l1.268.644-9.853 5.632-4.588-2.602.782-.938 3.806 2.172L20.28 6zm4.184 3.111l.701.939-13.47 7.697-6.505-3.701.297-1.18 6.208 3.54 12.769-7.295zm1.943 3.46c.396 1.109.594 2.27.594 3.486 0 1.216-.198 2.397-.594 3.54l-.27.725a11.142 11.142 0 0 1-2.348 3.486 10.85 10.85 0 0 1-3.51 2.307c-1.385.59-2.815.885-4.291.885-1.494 0-2.925-.295-4.293-.885a11.341 11.341 0 0 1-3.482-2.307 10.568 10.568 0 0 1-2.348-3.486c-.57-1.35-.865-2.8-.864-4.265v-.724l6.694 3.782 14.118-8.046.594 1.502z"/></g></svg>
